src/images/pen-to-square-regular-full.svg

<?xml version="1.0" encoding="utf-8"?>
<!-- Generator: Adobe Illustrator 26.1.0, SVG Export Plug-In . SVG Version: 6.00 Build 0)  -->
<svg version="1.1" id="Layer_1" xmlns="http://www.w3.org/2000/svg" xmlns:xlink="http://www.w3.org/1999/xlink" x="0px" y="0px"
	 viewBox="0 0 640 640" style="enable-background:new 0 0 640 640;" xml:space="preserve">
<style type="text/css">
	.st0{fill:#FFFFFF;}
</style>
<path class="st0" d="M505,122.9l12.1,12.1c9.4,9.4,9.4,24.6,0,33.9L488,198.1L441.9,152l29.1-29.1c9.4-9.4,24.6-9.4,33.9,0H505z
	 M273.8,320.2L408,185.9l46.1,46.1L319.8,366.2c-2.9,2.9-6.5,5-10.4,6.1L250.9,389l16.7-58.5c1.1-3.9,3.2-7.5,6.1-10.4L273.8,320.2z
	 M437.1,89L239.8,286.2c-8.7,8.7-15,19.4-18.3,31.1l-28.6,100c-2.4,8.4-0.1,17.4,6.1,23.6c6.2,6.2,15.2,8.5,23.6,6.1l100-28.6
	c11.8-3.4,22.5-9.7,31.1-18.3L551,202.9c28.1-28.1,28.1-73.7,0-101.8L538.9,89C510.8,60.9,465.2,60.9,437.1,89z M152,128
	c-48.6,0-88,39.4-88,88v272c0,48.6,39.4,88,88,88h272c48.6,0,88-39.4,88-88V376c0-13.3-10.7-24-24-24s-24,10.7-24,24v112
	c0,22.1-17.9,40-40,40H152c-22.1,0-40-17.9-40-40V216c0-22.1,17.9-40,40-40h112c13.3,0,24-10.7,24-24s-10.7-24-24-24H152z"/>
</svg>

<svg xmlns="http://www.w3.org/2000/svg" viewBox="0 0 640 640"><!--!Font Awesome Free 7.1.0 by @fontawesome - https://fontawesome.com License - https://fontawesome.com/license/free Copyright 2025 Fonticons, Inc.--><path d="M505 122.9L517.1 135C526.5 144.4 526.5 159.6 517.1 168.9L488 198.1L441.9 152L471 122.9C480.4 113.5 495.6 113.5 504.9 122.9zM273.8 320.2L408 185.9L454.1 232L319.8 366.2C316.9 369.1 313.3 371.2 309.4 372.3L250.9 389L267.6 330.5C268.7 326.6 270.8 323 273.7 320.1zM437.1 89L239.8 286.2C231.1 294.9 224.8 305.6 221.5 317.3L192.9 417.3C190.5 425.7 192.8 434.7 199 440.9C205.2 447.1 214.2 449.4 222.6 447L322.6 418.4C334.4 415 345.1 408.7 353.7 400.1L551 202.9C579.1 174.8 579.1 129.2 551 101.1L538.9 89C510.8 60.9 465.2 60.9 437.1 89zM152 128C103.4 128 64 167.4 64 216L64 488C64 536.6 103.4 576 152 576L424 576C472.6 576 512 536.6 512 488L512 376C512 362.7 501.3 352 488 352C474.7 352 464 362.7 464 376L464 488C464 510.1 446.1 528 424 528L152 528C129.9 528 112 510.1 112 488L112 216C112 193.9 129.9 176 152 176L264 176C277.3 176 288 165.3 288 152C288 138.7 277.3 128 264 128L152 128z"/></svg>
